public/icons/icon/undo.svg

<svg width="30" height="30" viewBox="0 0 30 30" fill="none" xmlns="http://www.w3.org/2000/svg">
<path fill-rule="evenodd" clip-rule="evenodd" d="M9.70711 4.29289C10.0976 4.68342 10.0976 5.31658 9.70711 5.70711L7.41421 8H18C22.9706 8 27 12.0294 27 17C27 21.9706 22.9706 26 18 26H10C9.44772 26 9 25.5523 9 25C9 24.4477 9.44772 24 10 24H18C21.866 24 25 20.866 25 17C25 13.134 21.866 10 18 10H7.41421L9.70711 12.2929C10.0976 12.6834 10.0976 13.3166 9.70711 13.7071C9.31658 14.0976 8.68342 14.0976 8.29289 13.7071L4.29289 9.70711C3.90237 9.31658 3.90237 8.68342 4.29289 8.29289L8.29289 4.29289C8.68342 3.90237 9.31658 3.90237 9.70711 4.29289Z" fill="black"/>
</svg>

<svg xmlns="http://www.w3.org/2000/svg" width="30" height="30" fill="none"><path fill="#000" fill-rule="evenodd" d="M9.707 4.293a1 1 0 0 1 0 1.414L7.414 8H18a9 9 0 1 1 0 18h-8a1 1 0 1 1 0-2h8a7 7 0 1 0 0-14H7.414l2.293 2.293a1 1 0 0 1-1.414 1.414l-4-4a1 1 0 0 1 0-1.414l4-4a1 1 0 0 1 1.414 0Z" clip-rule="evenodd"/></svg>
